X:1
T:Title
%%score { ( 1 3 ) | ( 2 4 ) }
L:1/8
M:4/2
K:Bb
V:1 treble nm="Grand Piano"
V:3 treble 
V:2 bass 
V:4 bass 
V:1
 z8 z4[Q:1/4=184] [DF]4 | [DB]6 [DF]2 [DF]4 [Fd]4 | [Fc]6 [FB]2 [GB]4 G4 | B6 B2 B4 G4 | %4
[M:6/4] [EG]6 [DF]2 [DF]4 |[M:2/4] [DF]4 |[M:8/4] [DF]6 [DF]2 [EG]4 [EG]4 | %7
 [DF]6 [DF]2 [DB]4 [FB]4 | c6 c2 c4 c4 |[M:6/4] d6 d2 c4 |[M:2/4] c4 |[M:8/4] d6 d2 f4 d4 | %12
 [Ac]6 [GB]2 [^Fd]4 [GB]4 | [GB]6 [Gc]2 [GB]4 [EG]4 |[M:6/4] [DF]6 [B,D]2 [DF]4 |[M:2/4] [Fd]4 | %16
[M:8/4] c6 c2 B4 B4 | [Ge]6 [Ge]2 [Fd]4 [DF]4 | G6 G2 F4 F4 | [A,CF]6 [A,CE]2 [B,D]8 | %20
[M:6/4] [DF]2 [DF]4 [DF]2 [DF]4 | [DB]2 B4 G2 G4- | %22
 G2 F4 F2 F2- [DF]2[Q:1/4=181][Q:1/4=179][Q:1/4=176][Q:1/4=173][Q:1/4=170][Q:1/4=168][Q:1/4=165][Q:1/4=162][Q:1/4=160][Q:1/4=157][Q:1/4=154][Q:1/4=152][Q:1/4=149][Q:1/4=146][Q:1/4=143][Q:1/4=141] | %23
[M:4/4] [CEF]2 [B,DF]6 |] %24
V:2
 z8 z4 [B,,B,]4 | [B,,F,]6 [B,,B,]2 [B,,B,]4 [B,,B,]4 | [C,A,]6 [D,B,]2 [E,B,]4 [E,B,E]4 | %3
 [E,G,E]6 [E,G,E]2 [E,G,E]4 [E,B,E]4 |[M:6/4] [B,,B,]6 [B,,B,]2 [B,,B,]4 |[M:2/4] [B,,B,]4 | %6
[M:8/4] [B,,B,]6 [B,,B,]2 [E,B,]4 [E,B,]4 | [B,,B,]6 [B,,B,]2 [B,,F,]4 [D,B,]4 | %8
 [F,A,F]6 [F,A,F]2 [F,A,F]4 [F,A,F]4 |[M:6/4] [B,F]6 [B,F]2 [F,A,F]4 |[M:2/4] [F,A,F]4 | %11
[M:8/4] [B,F]6 [B,F]2 [B,DB]4 [B,FB]4 | [F,F]6 [G,D]2 [D,D]4 [G,D]4 | %13
 [E,E]6 [E,E]2 [E,E]4 [E,B,]4 |[M:6/4] [B,,B,]6 [B,,F,]2 [B,,B,]4 |[M:2/4] [B,,B,]4 | %16
[M:8/4] [F,A,F]6 [F,A,F]2 [G,B,D]4 [G,B,D]4 | [E,B,]6 [E,B,]2 [B,,B,]4 [B,,B,]4 | %18
 [E,B,E]6 [E,B,E]2 [F,B,D]4 [F,B,D]4 | [F,,F,]6 [F,,F,]2 [B,,F,]8 | %20
[M:6/4] [B,,B,]2 [B,,B,]4 [B,,B,]2 [B,,B,]4 | [B,,B,]2 [E,G,E]4 [E,B,E]2 [E,B,E]4- | %22
 [E,B,E]2 [F,B,D]4 .[F,B,D]4 B,2 |[M:4/4] F,,2 B,,6 |] %24
V:3
 x16 | x16 | x16 | x16 |[M:6/4] x12 |[M:2/4] x4 |[M:8/4] x16 | x16 | x16 |[M:6/4] x12 |[M:2/4] x4 | %11
[M:8/4] x16 | x16 | x16 |[M:6/4] x12 |[M:2/4] x4 |[M:8/4] x16 | x16 | x16 | x16 |[M:6/4] x12 | %21
 x12 | z6 z2 .[A,C]4 |[M:4/4] x8 |] %24
V:4
 x16 | x16 | x16 | x16 |[M:6/4] x12 |[M:2/4] x4 |[M:8/4] x16 | x16 | x16 |[M:6/4] x12 |[M:2/4] x4 | %11
[M:8/4] x16 | x16 | x16 |[M:6/4] x12 |[M:2/4] x4 |[M:8/4] x16 | x16 | x16 | x16 |[M:6/4] x12 | %21
 x12 | z6 z2 F,,4 |[M:4/4] x8 |] %24

